X:1
T:Joe O'Leary's Fancy
M:C|
L:1/8
Q:80
C:Composed by Michael Murphy
S:Hornpipe
K:HP
|: {g}d3/4B/4 | \
{gAd}A{g}A3/4d/4{g}f3/4d/4{gdedG}d | \
{gGd}G{g}G3/4B/4{gde}d3/4G/4{gBeBG}B |
{gAd}A{g}A3/4{d}c/4{g}e3/4A/4{gcecG}c | \
{gdedG}d{g}d3/4e/4{g}f3/4d/4{gdedG}d{gAd}A{g}A3/4d/4{g}f3/4d/4{gdedG}d | \
{gGd}G{g}G3/4B/4{gde}d3/4G/4{gBeBG}B |
{gAd}A{g}A3/4{d}c/4{gef}e3/4A/4{g}B3/4c/4 | \
{gdedG}d{g}d3/4e/4{Gdc}d :: \
{g}f3/4g/4 |
{ag}a{fg}f3/4d/4a3/4d/4{gdedG}d | \
{gf}g{ef}e3/4c/4{gf}g3/4c/4{gcecG}c | \
{ag}a{fg}f3/4d/4a3/4d/4{gdedG}d |
{g}A3/4{d}c/4{gef}e3/4c/4g3/4c/4{gcecG}c{ag}a{fg}f3/4d/4a3/4d/4{gdedG}d |
